src/sources/forus-webshop/resources/_webshop-common/assets/img/icon-search/providers.svg

<svg width="16" height="16" viewBox="0 0 16 16" fill="none" xmlns="http://www.w3.org/2000/svg">
<path d="M1.26081 8.18385L1.75522 8.67827L4.79607 11.8592L7.22086 13.7735L8.87177 12.9792C9.99835 14.0195 11.5446 12.4714 10.5049 11.3462L6.6593 6.67776L1.25777 2.09912C-0.42025 3.78046 -0.419275 6.50377 1.26081 8.18385Z" fill="#3C4F4B"/>
<path d="M7.86551 2.61285L7.34864 2.09598C5.66665 0.413773 2.93804 0.415073 1.25781 2.09912L10.5049 11.3462C11.6315 12.3856 13.1776 10.8404 12.1379 9.71309C12.9898 10.5474 14.3748 9.71951 14.0669 8.58713L12.9128 3.94662L7.86551 2.61285Z" fill="#3C4F4B"/>
<path d="M8.63085 1.84735C8.26581 2.2124 7.11704 3.36117 6.73438 3.74383L7.42422 4.43367C8.16994 5.17986 9.37932 5.1782 10.1244 4.43367L11.3416 5.65092L13.423 4.30408L14.9088 2.08371C13.4604 0.432401 10.8294 -0.184093 8.63085 1.84735Z" fill="#62B6A4"/>
<path d="M11.3418 5.65083L13.771 8.08003C13.917 8.226 14.0154 8.40143 14.0669 8.58715L14.7189 7.93513C16.5645 5.93664 16.2245 3.58336 14.909 2.08362L11.3418 5.65083Z" fill="#62B6A4"/>
<path d="M5.23093 11.7623C5.21404 11.7775 5.1974 11.793 5.18123 11.8093C5.16686 11.8254 5.1521 11.8412 5.13672 11.8566L5.23093 11.7623Z" fill="black"/>
<path d="M5.13672 11.8566C5.15213 11.8412 5.1669 11.8254 5.18123 11.8093C5.16607 11.8246 5.15119 11.8403 5.13672 11.8566Z" fill="black"/>
<path d="M4.7281 12.2648C4.71269 12.2802 4.69792 12.296 4.68359 12.312C4.69875 12.2967 4.71363 12.281 4.7281 12.2648Z" fill="black"/>
<path d="M5.12792 12.242C5.12792 12.242 5.16554 11.8245 5.1807 11.8093C5.5865 11.3559 5.57173 10.659 5.13619 10.2234C4.68524 9.77248 3.95406 9.77248 3.50311 10.2234L3.66641 10.0601C4.11736 9.60918 4.11736 8.87804 3.66641 8.42708C3.21545 7.97613 2.48432 7.97613 2.03332 8.42708L1.57064 8.88977C1.11968 9.34073 1.11968 10.0719 1.57064 10.5229C2.02159 10.9738 2.75273 10.9738 3.20369 10.5229L3.04038 10.6862C2.58943 11.1371 2.58943 11.8683 3.04038 12.3192C3.4956 12.7778 4.23554 12.7627 4.68336 12.3121C4.69776 12.296 5.12792 12.242 5.12792 12.242Z" fill="#62B6A4"/>
<path d="M7.25904 12.9996L6.82357 13.4351C7.27452 12.9841 7.27452 12.253 6.82357 11.8021C6.38481 11.3601 5.68158 11.3582 5.2303 11.7622L5.13605 11.8565L4.7278 12.2647C4.71332 12.281 4.69845 12.2967 4.68329 12.312C4.27749 12.7654 4.29225 13.4622 4.7278 13.8978C5.17875 14.3488 5.90989 14.3488 6.36084 13.8978L6.79632 13.4624C6.34536 13.9133 6.34536 14.6444 6.79632 15.0954C7.24727 15.5464 7.97841 15.5464 8.4294 15.0954L8.89212 14.6327C9.34308 14.1818 9.34308 13.4506 8.89212 12.9996C8.44113 12.5487 7.70999 12.5487 7.25904 12.9996Z" fill="#62B6A4"/>
</svg>

<svg width="16" height="16" fill="none" xmlns="http://www.w3.org/2000/svg">
    <path d="m1.26 8.184.495.494 3.041 3.181 2.425 1.915 1.65-.795c1.127 1.04 2.674-.508 1.634-1.633L6.659 6.678 1.258 2.099a4.305 4.305 0 0 0 .003 6.085Z" fill="#3C4F4B" class="svg_fill_dark"/>
    <path d="m7.866 2.613-.517-.517a4.305 4.305 0 0 0-6.091.003l9.247 9.247c1.127 1.04 2.673-.506 1.633-1.633.852.834 2.237.007 1.929-1.126l-1.154-4.64-5.047-1.334Z" fill="#3C4F4B" class="svg_fill_dark"/>
    <path d="M8.63 1.847 6.735 3.744l.69.69a1.91 1.91 0 0 0 2.7 0l1.218 1.217 2.081-1.347 1.486-2.22C13.46.432 10.829-.184 8.63 1.847Z" fill="#62B6A4"  class="svg_fill_light"/>
    <path d="m11.342 5.65 2.429 2.43c.146.146.244.321.296.507l.652-.652c1.845-1.998 1.505-4.352.19-5.851L11.342 5.65Z" fill="#62B6A4"  class="svg_fill_light"/>
    <path d="M5.128 12.242s.038-.418.053-.433a1.155 1.155 0 0 0-1.678-1.586l.163-.163a1.155 1.155 0 1 0-1.633-1.633l-.462.463a1.155 1.155 0 0 0 1.633 1.633l-.164.163a1.155 1.155 0 1 0 1.643 1.626c.015-.016.445-.07.445-.07Z" fill="#62B6A4"  class="svg_fill_light"/>
    <path d="m7.259 13-.435.435a1.155 1.155 0 0 0-1.594-1.673l-.094.095-.408.408-.045.047a1.155 1.155 0 0 0 1.678 1.586l.435-.436a1.155 1.155 0 1 0 1.633 1.633l.463-.462A1.155 1.155 0 0 0 7.26 13Z" fill="#62B6A4"  class="svg_fill_light"/>
</svg>
